svgs/sharp-regular/bags-shopping.svg

<svg xmlns="http://www.w3.org/2000/svg" viewBox="0 0 576 512"><!--! Font Awesome Pro 6.6.0 by @fontawesome - https://fontawesome.com License - https://fontawesome.com/license (Commercial License) Copyright 2024 Fonticons, Inc. --><path d="M176 96c0-26.5 21.5-48 48-48s48 21.5 48 48l0 64-96 0 0-64zm-48 64l-80 0L0 160l0 48L0 432l0 48 48 0 112 0 0-48L48 432l0-224 352 0 0 16 48 0 0-16 0-48-48 0-80 0 0-64c0-53-43-96-96-96s-96 43-96 96l0 64zm448 96l-384 0 0 256 384 0 0-256zM320 336l0 16c0 35.3 28.7 64 64 64s64-28.7 64-64l0-16 0-16 32 0 0 16 0 16c0 53-43 96-96 96s-96-43-96-96l0-16 0-16 32 0 0 16z"/></svg>

<svg xmlns="http://www.w3.org/2000/svg" viewBox="0 0 576 512"><!--! Font Awesome Pro 6.4.0 by @fontawesome - https://fontawesome.com License - https://fontawesome.com/license (Commercial License) Copyright 2023 Fonticons, Inc. --><path d="M176 96c0-26.5 21.5-48 48-48s48 21.5 48 48v64H176V96zm-48 64H48 0v48V432v48H48 160V432H48V208H400v16h48V208 160H400 320V96c0-53-43-96-96-96s-96 43-96 96v64zm448 96H192V512H576V256zM320 336v16c0 35.3 28.7 64 64 64s64-28.7 64-64V336 320h32v16 16c0 53-43 96-96 96s-96-43-96-96V336 320h32v16z"/></svg>
